!!!!SEGMENT: 004-1-HAc-003.krn
!!!COM: Chopin, Fryderyk
!!!OTL: Sonate. Larghetto.
!!!OPS: Op. 4
!!!PTL: Grande Sonate pour le Pianoforte
!!!OMV: 3
!!!PPR: C. Haslinger
!!!PPP: Vienna
!!!AGN: Sonata
!!!NIFC-rismID:  1001009310
!!!NIFC-shelfmark: PL-Wbfc 3859/n
!!!OMD: Larghetto.
!!!OMD: ([quarter] = 72.)
!!!system-decoration: {(s1,s2)}
**kern	**kern	**dynam
*part1	*part1	*part1
*staff2	*staff1	*
*clefF4	*clefG2	*
*k[b-e-a-d-]	*k[b-e-a-d-]	*
*A-:	*A-:	*
*M5/4	*M5/4	*
*MM72	*MM72	*
=1	=1	=1
!	!LO:TX:a:Bi:t=con molt' espressione.	!
!	!	!LO:DY:rj
4AA-	(>4c<'> 4A-<'> 4E-<'>	p
!	!LO:TX:a:t=P:Larghetto w źródle po lewej stronie akolady:problem	!
!	!	!LO:HP:b=2
!LO:N:vis=2	!	!
2.AA-	4c<'> 4A-<'> 4E-<'>	>
!	!LO:TX:b:t=P:łuki wyświetlają się w złym miejscu:problem	!
!	!LO:S:s=2:note:problem:note-level slur	!
.	(<(>4Bn<^^> 4A-< 4F< 4Dn<	.
!	!LO:S:s=1:note:problem:note-level slur	!
.	4c<'>) 4A-<'> 4E-<'>)	]
4AA-	4c<'> 4A-<'> 4E-<'>)	.
=2	=2	=2
!	!LO:TX:a:t=P:łuk wyświetla się w złym miejscu:problem	!
4AA- 4AAA-	(>4c<'> 4A-<'> 4E-<'>	.
!LO:N:n=2:vis=2.	!	!
4AA- 4AAA-	4c<'> 4A-<'> 4E-<'>	.
4AA-	4Bn<^^> 4A-< 4F< 4Dn<	.
4AA-	4c<'> 4A-<'> 4E-<'>	.
4AA- 4AAA-	4c<'> 4A-<'> 4E-<'>)	.
=3	=3	=3
*^	*	*
4ryy	4AA-	(>4c<'> 4A-<'> 4E-<'>	<
4A- 4E-	4AA-	4e-'> 4c'>	.
4A- 4E-	4AA-	4a-'> 4e-'> 4c'>	[
2A-	4C	4cc'> 4e-'>	.
.	4D-	4b-'> 4f'>)	>
=4	=4	=4	=4
*	*	*	*^
4G	4E-	(>4b- 4e- 4d-	.	p
4ryy	4A- 4E- 4AA-	4a- 4e- 4c)	]	.
4r	2.ryy	4r	.	.
4r	.	(<4e-'<	.	.
4r	.	4e-'<)	.	.
*	*	*	*v	*v
*v	*v	*	*
!!LO:LB:g=original
=5	=5	=5
*	*^	*
*	*	*^	*
4r	(>8c/L	2.ryy	2..ryy	.
.	8a-/J	.	.	.
4r	8e-/L	.	.	.
.	8cc/J	.	.	.
4r	8a-/L	.	.	.
.	8ee-/J	.	.	.
(>4E-'>	2cc	8ccL\	.	.
.	.	8ee-	4.ee-/	.
4E-'>)	.	8bb-	.	.
.	.	[>8aa-J)	.	.
*	*	*v	*v	*
=6	=6	=6	=6
(>8EE-L	(>4aa-]	2ee- [<2dd-	.
8BB-J	.	.	.
8E-L	4gg	.	.
8GJ	.	.	.
8B-L	4ff	2dd-]	.
8e-J	.	.	.
8g	4.ee-	.	.
4.e-)	.	.	.
.	.	8ccL	.
.	8dd-)	8b-J	.
=7	=7	=7	=7
*	*	*^	*
8e-> 8A-	(>8ccL 8a-	2..ryy	1ryy	.
8r	8e-J	.	.	.
4E-'>	8cL	.	.	.
.	8a-J	.	.	.
4E-'>	8e-L	.	.	.
.	8ccJ	.	.	.
4E-'>	8a-L	.	.	<
.	8ee-J	4.ee-	.	.
[>4E-	8bb-L	.	4cc	.
.	8aa-J)	.	.	[[
*	*	*v	*v	*
=8	=8	=8	=8
*^	*	*	*
4E-]	(>8EE-L	(>4aa-	2ee- [<2dd-	>
.	8BB-J	.	.	.
2ryy	8E-L	4gg	.	.
.	8GJ	.	.	.
.	8B-L	4ff	2dd-]	]
.	8e-J	.	.	.
2ryy	8g	4.ee-	.	.
.	4.e-)	.	.	.
.	.	.	8ccL	.
.	.	8dd-)	8b-J	.
*v	*v	*	*	*
!!LO:LB:g=original
=9	=9	=9	=9
!!mixed beam:problem
8A-L\	8cc 8a-	8e-	.
(>8AA-J/	8r	8ryy	.
8CL	4cc	4a-	.
8E-J	.	.	.
8A-L	[>2cc	4a-	.
8cJ	.	.	.
!	!	!	!LO:HP:b=2
8e-L	.	4a-	<
8cJ	.	.	[
!	!	!	!LO:HP:b=2
8fL	8ccL]	[<4a-	>
8e-J)	8cc-XJ	.	]
=10	=10	=10	=10
!!mixed beam:problem
8dnL\	(>4b-	4a-]	.
(>8BBB-J/	.	.	.
8FFL	4b-'>	1a-	.
8BB-J	.	.	.
8DnL	4b-'>	.	.
8FJ	.	.	.
!	!	!	!LO:HP:b=2
8B-L	4b-'>	.	<
8dJ	.	.	.
8gL	4b-'>)	.	.
8fJ)	.	.	[
=11	=11	=11	=11
*^	*	*^	*
!!mixed beam:problem
2.ryy	8e-''>L\	(>4b- 4g	2.ryy	2ryy	.
.	(>8EE-J/	.	.	.	.
.	8BB-L\	4ee- 4g/	.	.	.
.	8E-J	.	.	.	.
.	8GL	4b- 4g)	.	4.ryy	.
.	8B-J	.	.	.	.
!	!	!	!	!	!LO:HP:b=2
2f	4c-X)	8a-L	2a-\	.	>
.	.	8ddnJ	.	4.ddn	] >
.	4B-	8ggL	.	.	.
.	.	8ffJ	.	.	]
=12	=12	=12	=12	=12	=12
!!mixed beam:problem
2.ryy	8e-''>L\	(>4ee-'>	4g	2ryy	.
.	(>8EE-J/	.	.	.	.
.	8BB-L\	4b-'>	4g	.	.
.	8E-J	.	.	.	.
.	8GL	4b-'>	4g	4.ryy	.
.	8B-J	.	.	.	.
!	!	!	!	!	!LO:HP:b=2
2f	4c-X)	8a-L	2a-\	.	>
!LO:TX:a:t=P:w źródle początek dwóch ligatur od dźwięków 2f i 4B-, które nie mają zakończenia:problem	!	!	!	!	!
.	.	8ddnJ	.	4.ddn	.
.	4B-	8ggL	.	.	]
.	.	8ffJ)	.	.	.
*v	*v	*	*	*	*
*	*	*v	*v	*
*	*v	*v	*
!!LO:LB:g=original
=13	=13	=13
!!mixed beam:problem
8e-L\	(>4ee-' 4g'	.
(>8EE-J/	.	.
8BB-L\	4ee-' 4g'	.
8E-J	.	.
!	!	!LO:HP:b=2
8GL	4ee-' 4g'	<
8B-J	.	.
8e-L	4ee-' 4dd-X' 4b-' 4g'	.
8B-J	.	[
!	!	!LO:HP:b=2
8GL	4ee-' 4dd-' 4b-' 4e-')\	>
8E-J)	.	]
=14	=14	=14
*^	*	*
2.ryy	(>8AA-L\	4ee-' 4cc' 4a-' 4e-'\	.
.	8E-J	.	.
.	8cL 8A-	4cc'> 4a-'> 4e-'>	.
.	8E-J	.	.
!	!	!LO:S:s=1:note:problem:note-level slur	!
.	8FL	(>&(<4bn^^> 4a- 4dn	.
.	8BnJ 8A-	.	.
!	!	!LO:S:s=1:note:problem:note-level slur	!
8ryy	8AA-L	4cc'>) 4a-'> 4e-'>&)	.
4.E-	8E-J	.	.
.	8cL 8A-	4cc'> 4a-'> 4e-'>	.
.	8E-J)	.	.
=15	=15	=15	=15
2.ryy	(>8AA-L\	8..ee-^>L 8..cc	.
.	8E-J	.	.
.	.	32cccJkk 32aa-	.
.	8cL 8A-	4ee- 4cc	.
.	8E-J	.	.
!	!	!LO:S:s=1:note:problem:note-level slur	!
!	!	!LO:S:s=2:note:problem:note-level slur	!
!	!	!LO:S:s=3:note:problem:note-level slur	!
.	8FL	(>4ddn^^> &(>4bn [<4a- &&(<4dni\	.
.	8BnJ 8A-	.	.
!	!	!LO:S:s=1:note:problem:note-level slur	!
!	!	!LO:S:s=2:note:problem:note-level slur	!
!	!	!LO:S:s=3:note:problem:note-level slur	!
8ryy	8AA-L	4ee-') 4cc'&) 4a-'] 4e-'\&&)	.
4.E-	8E-J	.	.
.	8cL 8A-	4ee- 4cc 4a- 4e-\	.
.	8E-J)	.	.
*v	*v	*	*
=16	=16	=16
*^	*^	*
(>8GGL	2ryy	4ryy	4bb-: 4ee-: 4dd-: 4b-: 4e-:	>
8E-	.	.	.	.
8B-	.	4gg 4ee-	4dd-	.
8E-J	.	.	.	.
.	.	8qgg/	.	.
4B-\	8GGL	8.ffL	4dd-	]
.	8E-J	.	.	.
.	.	16ee-Jk	.	.
4ryy	8AA-L\	4ee-	4cc	.
.	8E-J	.	.	.
8cL 8A-	4ryy	4cc 4a- 4e-	4ryy	.
8E-J)	.	.	.	.
!!LO:LB:g=original
=17	=17	=17	=17	=17
8r	2.EE-	4b-	8gL 8d-X	.
4E-^<	.	.	8e-J	.
.	.	8qcc/	.	.
.	.	8.b-L	8gL 8d-	.
4E-^<	.	.	8e-J	.
.	.	16anJk	.	.
.	.	8.b-L	8gL 8d-	.
8E-^<	.	.	8e-J	.
.	.	16ccJk	.	.
2ryy	(>8AA-L	4a-X	4c	.
.	8E-	.	.	.
.	8A-	4a-	4e- 4c	.
.	8E-J)	.	.	.
*	*	*v	*v	*
=18	=18	=18	=18
!	!	!	!LO:HP:b=2
8D-L	4.D-	(>4a-'> 4f'>	>
8A-J	.	.	.
8GL	.	4b-'> 4f-X'>	.
8D-J	8D-	.	] <
8CL	4C	4cc'> 4e-'>	.
[<8A-J	.	.	.
8A-L]	4D-	4dd-'> 4f-'>	[
8A-J	.	.	>]
8A-L	4AA-	4cc 4e-)	.
[<8A-J	.	.	.
=19	=19	=19	=19
*	*	*^	*^
!	!	!	!	!	!LO:HP:b=2
!	!LO:N:vis=4	!	!	!	!
8A-L]	4.D-	4a- 4fn	1ryy	<	>
8A-J	.	.	.	.	.
!LO:N:vis=8.	!	!	!	!	!
8GnL	.	4b- 4f-X	.	.	.
8D-J	8D-	.	.	.	]
8CL	4C	4cc 4e-	.	.	.
8A-J	.	.	.	[	.
!	!	!	!	!	!LO:HP:b=2
8B-L	4BB-	4dd- 4f- 4d-	.	.	<
8B-J	.	.	.	.	.
8B-L	4E-	8.b-L	4g 4e- 4d-	>	.
8B-J	.	.	.	.	.
.	.	(>16ccJk	.	]]	[
*	*	*	*	*v	*v
*v	*v	*	*	*
*	*v	*v	*
=20	=20	=20
(>8AA-L\	4a- 4e- 4c)	.
8E-J)	.	.
8c 8A-L	8a- 8e-	.
8E-J	8rf	.
*	*clefF4	*
!	!	!LO:HP:a
8d-L 8G	(<4EE-	>
8E-J	.	.
(>8AA-L\	4AAA-)	]
8E-J	.	.
8cL 8A-	8AAA-	.
8E-J)	8r	.
*	*clefG2	*
!!LO:LB:g=original
=21	=21	=21
*^	*	*
2.ryy	(>8AA-L\	4.e-	.
!	!	!LO:TX:b:Bi:t=leggier.	!
.	8E-J	.	.
.	8cL 8A-	.	.
.	8E-J	(>16fLL	.
.	.	16gJJ	.
.	8cL 8A-	32a-LLL	.
.	.	32b-	.
.	.	32cc	<
.	.	32dd-	.
.	8E-J	32ee-	.
.	.	32ff	.
.	.	32gg	.
!	!	!LO:TX:a:t=P:crescendo powinno skończyć się na 16qqgg:problem	!
.	.	32aa-JJJ)	[[
.	.	16qqgg/LL	.
.	.	16qqaa-/JJ	.
4F-X	8F-XL	8bb-''>	.
.	8d-J 8G	8r	.
4E-	8E-L	4ee-^^>	.
.	8d-J 8G)	.	.
=22	=22	=22	=22
*	*	*^	*
2.ryy	(>8AA-L\	8e-	16e-LL	.
.	.	.	16ee-	.
.	8E-J	8ryy	(>16e-	.
.	.	.	16a-JJ	.
.	8cL 8A-	1ryy	16ccLL	<
.	.	.	16ee-	.
.	8E-J	.	16aa-	.
.	.	.	16cccJJ	.
*	*	*8va	*	*
.	8cL 8A-	.	16eee-LL	.
.	.	.	16aaa-	.
.	8E-J	.	16dddd-	.
.	.	.	16ccccJJ)	[
.	.	.	16qqgggLL	.
.	.	.	16qqaaa-JJ	.
4F-X	8F-XL	.	8bbb-''>	.
.	8d-J 8G	.	8raa	.
4E-	8E-L	.	4eee-^^>	.
.	8d-J 8G)	.	.	.
*	*	*X8va	*	*
*v	*v	*	*	*
*	*v	*v	*
=23	=23	=23
!	!LO:TX:a:Bi:t=loco.	!
(8AA-L\	[4ccc	.
8E-J	.	.
!	!LO:TX:a:t=P:note-head-side tuplet number:problem	!
8A-L	(>12cccL]	.
.	12cc	>
8cJ	.	.
.	12bb-J	.
8FL	16aa-LL	.
.	16cc	.
8A-J)	16gg	.
.	16ffJJ	.
(8BB-L	12ee-L	.
.	12ff	.
8FJ	.	]
.	12dd-	.
8B-L	12ddd-	.
!	!LO:TX:a:t=P:w źródle łuk wygląda wygląda jakby kończył sie na 12ff:problem	!
.	12gg	.
8d-J)	.	.
.	12ffJ	.
!!LO:PB:g=original
=24	=24	=24
(>8CL	&(>10ee-L	.
.	10eee-	<
8E-J	.	.
.	10bb-	.
8A-L	.	.
.	10ccc	.
8cJ)	.	.
.	10aa-J&)	.
(>8D-L	&(>12ggL	.
.	12ff	.
8FJ	.	.
.	12fffJ&)	.
8B-L	&(>10cccL	.
.	10ddd-	.
8d-J	.	.
.	10ff	.
8FL	.	.
.	10ccc	.
8B-J)	.	.
.	10bb-J&)	.
=25	=25	=25
(>8E-L	&(>12aa-L	.
.	12gg	.
8GJ	.	.
.	12gggJ&)	.
8cL	&(>10ddd-L	.
.	10eee-	.
8e-J	.	.
.	10bb-	.
8GL	.	.
.	10ccc	.
8cJ)	.	.
.	10ggJ&)	.
!	!LO:TX:a:t=P:triola ćwierćnutowa bez klamry:problem	!
(>8FL	&(>6bb-	.
8A-J	.	.
.	6aa-	.
8cL	.	.
.	6aaa-&)	.
8fJ)	.	.
*clefG2	*	*
=26	=26	=26
*^	*^	*
8GL	2ryy	[<2bb-	8bb-L	.
8B-	.	.	8bbb-J	>
8e-	.	.	8gggL	.
8gJ	.	.	8eee-J	.
8a-L	4a-	4ryy	8ddd-L 8bb-]	.
[>8ee-J	.	.	8cccJ 8aa-	]
8ee-]	8e-	2bb-)	(>8ggL	p
8r	8ryy	.	8ee-J	.
4r	4ryy	.	8ddnL	.
!LO:TX:b:t=P:zmiana klucza na F4 od nowego systemu:problem	!	!	!	!
.	.	.	8dd-XJ)	.
*v	*v	*	*	*
*clefF4	*	*	*
!!LO:LB:g=original
=27	=27	=27	=27
*	*	*Xtuplet	*
*	*ped	*	*
(8GG-XL	2bb- 2gg-X	(>12r	.
.	.	12b-L	<
8D-	.	.	.
.	.	12ee-J)	[
8G-X	.	(>12dd-L	>
.	.	12cc-X	.
*	*Xped	*	*
8d-J)	.	.	.
.	.	12b-J)	]
*	*	*tuplet	*
*	*ped	*	*
!!mixed beam:problem
8DD-L/	4aa- 4ff	8rg	[
*	*Xped	*	*
8d-J\	.	8a-	.
!	!	!LO:TX:a:t=P:note-head-side tuplet number:problem	!
!	!	!LO:TX:a:t=P:w źródle brak klamry:problem	!
8FF-X''<L	2aa- 2ff-X	18rg	.
*	*ped	*	*
!	!	!	!LO:HP:a
.	.	(>18a-LL	>
.	.	18cc-X	.
(8C-XJ	.	.	.
.	.	18dd-	]]
.	.	18cc-	.
8F-XL	.	.	.
.	.	18dd-	.
.	.	18cc-	.
8c-XJ)	.	.	.
.	.	18b--	.
*	*Xped	*	*
.	.	18a-JJ)	.
=28	=28	=28	=28
*^	*	*	*
*	*	*ped	*	*
.	8qCC-/	.	.	.
!	!LO:TX:b:t=P:oznaczenie pedalizacji nad 8qCC-:problem	!	!	!
8rA	2C-X	4gg-X 4ee-	8re	.
(<8c-X'<L	.	.	4g-X	>
8c-'<	.	4ee- 4b--	.	.
8c-'<	.	.	4g-	.
8c-'<	4ryy	4ee- 4an	.	.
*	*	*Xped	*	*
8c-'<J)	.	.	4.f	]
2ryy	(>8B-L	4ddn 4b--	.	.
!!!SIC@EN: there should be 4b- instead of 4b--. In the next part of this measure there also should be 8b- instead of 8b-- (twice)
.	8A-	.	.	.
.	8G-X	8ee-L 8b-- 8e-/	4ryy	<
.	8DnJ)	8ffJ 8b-- 8f	.	[[
*	*	*v	*v	*
=29	=29	=29	=29
*	*	*^	*
*	*	*	*^	*
*	*	*	*	*	*^
4rc	2E-	(>8gg-XL	4.b-/	2g-X	>	.
.	.	8ee-J	.	.	.	.
4e-	.	8dd-)	.	.	]	.
!	!	!	!	!	!LO:HP:a	!
.	.	4cc-X	8ryy	.	>	.
!	!	!	!	!	!	!LO:HP:b=2
4d-	4En	.	2.ryy	4gn\	.	<
.	.	8b-	.	.	]	.
4c	4F	8anL	.	4e-\	.	.
.	.	16gL	.	.	.	.
.	.	16aJJ	.	.	.	.
4B-	4G-X	4b-	.	(>8d-\L	.	[
.	.	.	.	8e-\J)	.	.
*	*	*	*	*	*v	*v
*v	*v	*	*	*	*
*	*	*v	*v	*
*	*v	*v	*
!!LO:LB:g=original
=30	=30	=30
*	*	*^
!	!	!LO:HP:a	!LO:HP:b=2
(>8GL	1b- 1en 1c#X	>	<
!	!LO:TX:b:Bi:t=pesante e rallentando.	!	!
.	.	.	.
8F#XJ	.	.	.
8GL	.	]	.
8AnJ	.	.	[
!	!	!	!LO:HP:b=2
8B-L	.	.	>
8AJ	.	.	.
8GL	.	.	.
8EnJ	.	.	]
8C#XL\	4b- 4g 4en	.	.
8BB-J)	.	.	.
*	*	*v	*v
=31	=31	=31
*	*^	*
*	*	*^	*
!	!	!LO:TX:b:t=P:note position:problem	!	!
(>8GGL\	1b-	2.f-X/	[1d-	.
!	!	!	!	!LO:HP:b=2
8GJ	.	.	.	<
8F#XL	.	.	.	.
8GJ	.	.	.	[
!	!	!	!	!LO:HP:b=2
8B-L	.	.	.	>
8A-J	.	.	.	.
8GL	.	2e-X/	.	.
8FnJ	.	.	.	]
8E-XL\	4b-	.	4d-]	.
8GGJ)	.	.	.	.
*	*	*v	*v	*
*	*v	*v	*
=32	=32	=32
*^	*	*
*	*	*ped	*
!	!	!LO:TX:a:Bi:t=a tempo.	!
2ryy	(>8AA-L\	4cc' 4a-' 4e-' 4c'	.
.	8E-J	.	.
.	8cL 8A-	4cc' 4a-' 4e-'	.
.	8E-J	.	.
*	*	*Xped	*
!	!	!LO:S:s=1:note:problem:note-level slur	!
!	!	!LO:S:s=2:note:problem:note-level slur	!
4F	8FL	(>4bn^^> [<4a- &(<4dn	.
.	8BnJ 8A-	.	.
*	*	*ped	*
!	!	!LO:S:s=1:note:problem:note-level slur	!
!	!	!LO:S:s=2:note:problem:note-level slur	!
2ryy	8AA-L\	4cc') 4a-'] 4e-'&)	.
.	8E-J	.	.
.	8cL 8A-	[>4cc' 4a-' 4e-'	.
.	8E-J)	.	.
!!LO:LB:g=original
=33	=33	=33	=33
*	*	*^	*
*	*	*	*^	*
2ryy	(>8AA-L\	4ryy	4ryy	(>16ccLL]	.
.	.	.	.	16ee-	.
.	8E-J	.	.	16aa-	.
.	.	.	.	16cccJJ)	.
*	*	*8va	*	*	*
.	8cL 8A-	8.ccccL	16ryy	16ccccLL	>
!	!	!	!LO:N:vis=8.	!	!
.	.	.	16eee-L/	16eee-	.
!	!	!	!LO:N:vis=8	!	!
.	8E-J)	.	16cccJ	16ccc	.
!	!	!LO:N:vis=8	!	!	!
.	.	16aaa-J	8ryy	16aaa-JJ	]
*	*	*Xped	*	*	*
4F	8FL	8.bbbnL	.	16bbbnLL	>
!	!	!	!LO:N:vis=8.	!	!
.	.	.	16dddnL/	16dddn	.
!	!	!	!LO:N:vis=8	!	!
.	8BnJ 8A-	.	16bbnJ	16bbn	.
.	.	8aaa-J	4ryy	16aaa-JJ	]
*	*	*ped	*	*	*
2ryy	8AA-L\	.	.	16ccccLL	>
.	.	8.ryy	.	16eee-	.
.	8E-J	.	.	16ccc	.
.	.	.	8.ryy	16ee-JJ	.
*	*	*X8va	*	*	*
!	!	!LO:TX:a:Bi:t=loco.	!	!	!
.	8cL 8A-	16cccKL	.	16cccLL	.
.	.	8aa-	.	16aa-	.
.	8E-J	.	8cc/	16cc	.
*	*	*Xped	*	*	*
.	.	16ee-Jk	.	16ee-JJ	]
*	*	*	*v	*v	*
=34	=34	=34	=34	=34
*	*	*	*Xtuplet	*
*	*	*ped	*	*
!	!	!	!LO:TX:a:Bi:t=leggieriss.	!
8EE-L	4ryy	2.ryy	(>16gLL	<
.	.	.	16ee- 16dd-	.
8E-J	.	.	16ccc)	[[
.	.	.	32rff	.
.	.	.	32bb-JJk	.
4ryy	8B-L	.	(>16gLL	<
.	.	.	16ee- 16dd-	.
.	8E-J	.	16aa-)	[[
.	.	.	32rff	.
.	.	.	32ggJJk	.
4B-\	8GGL	.	(>16e-LL	<
.	.	.	16dd- 16b-	.
.	8E-J	.	16ff)	.
.	.	.	32r	.
*	*	*Xped	*	*
.	.	.	32ee-JJk 32dd-	[
*	*	*ped	*	*
4ryy	8AA-L\	8ee-L	12ccL	.
.	.	.	12e-	>
.	8E-J	8ddnJ	.	.
!	!	!	!LO:TX:b:t=P:note position:problem	!
.	.	.	12bnJ	.
4ryy	8cL 8A-	8dd-XL	12b-XL	.
.	.	.	12e-	.
*	*	*Xped	*	*
.	8E-J	8ccJ	.	.
!	!	!	!LO:TX:b:t=P:note position:problem	!
.	.	.	12a-J	]
*	*	*	*tuplet	*
=35	=35	=35	=35	=35
*	*	*	*^	*
*	*	*	*Xtuplet	*Xtuplet	*
*ped	*	*	*	*	*
!	!	!LO:TX:a:t=P:stem-side tuplet number:problem	!	!	!
!	!	!	!	!LO:N:vis=5.	!
(>8EE-L	4ryy	(>20d-LL	20ryy	5d-L	.
!	!	!	!LO:N:vis=5	!	!
.	.	20g	20g	.	.
.	.	20cc	20ryy	.	.
8E-J	.	.	.	.	.
!	!	!	!LO:N:vis=10	!	!
.	.	20b-	20b-	.	.
.	.	.	.	.	.
.	.	20e-JJ)	10ryy	20e-Jk	.
!	!	!	!	!LO:N:vis=5.	!
4ryy	8B-L	(>20d-LL	.	5d-L	.
!	!	!	!LO:N:vis=5	!	!
.	.	20g	20g	.	.
.	.	20cc	20ryy	.	.
.	8E-J)	.	.	.	.
!	!	!	!LO:N:vis=10	!	!
.	.	20b-	20b-	.	.
.	.	.	.	.	.
.	.	20e-JJ)	10ryy	20e-Jk	.
(>8EE-L	4EE-	(>20d-LL	.	10.d-L	.
!	!	!	!LO:N:vis=5	!	!
.	.	20g	20g	.	.
!	!	!	!LO:N:vis=5.	!	!
.	.	20dd-	20dd-L	.	.
8E-J	.	.	.	.	.
.	.	20e-	20ryy	20e-Jk	.
.	.	.	.	.	.
.	.	20ccJJ)	20ccJ	20ryy	<
*	*	*Xtuplet	*	*tuplet	*
*ped	*	*	*	*	*
!	!	!	!	!LO:TX:a:t=P:note-head-side tuplet number:problem	!
2ryy	8AA-L\	N(>12a-L	2ryy	12cL	.
.	.	12e-	.	12e-	.
.	8E-J	.	.	.	.
.	.	12a-J	.	12a-	.
.	8A-L	12ryy	.	12b-	.
.	.	6cc	.	12a-	.
.	8cJ)	.	.	.	.
.	.	.	.	12e-JN)	.
*	*	*tuplet	*tuplet	*	*
*	*	*	*v	*v	*
*v	*v	*	*	*
!!LO:LB:g=original
=36	=36	=36	=36
!	!	!LO:TX:b:t=P:diminuendolike accent:problem	!LO:DY:rj
(>8AA-L\	4ee-:^^>	4cc:^< 4a-: 4g-X:	f
8E-J	.	.	.
8cL 8A-	4cc	4a- 4g-	.
8E-J	.	.	.
!	!	!LO:TX:b:t=P:diminuendolike accent:problem	!
8cL 8A-	(>8.a-L	(<4g-^	.
8E-J)	.	.	.
*Xped	*	*	*
.	32ccLL	.	.
.	32b-JJJ	.	.
*ped	*	*	*
(>8D-L	4.a-	4f	.
8A-J	.	.	.
8d-L	.	4f-X	.
*Xped	*	*	*
8A-J)	8b-)	.	.
*ped	*	*	*
.	.	.	.
=37	=37	=37	=37
(<8AA-L\	(>4cc'>	4e-)	.
8E-J	.	.	.
8cL 8A-	8a-'>)	8e-	.
8E-J	8ryy	8rg	.
*Xped	*	*	*
*	*clefF4	*	*
!	!	!	!LO:DY:a
8d-L 8G	(<4EE-'<	2.ryy	pp
8E-J	.	.	.
*ped	*	*	*
8AA-L\	4AAA-'<)	.	.
8E-J	.	.	.
8cL 8A-	8AAA-'<	.	.
8E-J)	8r	.	.
*Xped	*	*	*
.	.	.	.
*	*clefG2	*	*
*	*v	*v	*
=38	=38	=38
*	*^	*
*	*	*^	*
[4.DD-	2cc	4d-/	8d-L	p
!	!LO:TX:b:Bi:t=dolciss.	!	!	!
.	.	.	8fJ	.
.	.	4d-/	8d-L	.
!LO:TX:a:t=P:note-head-side tuplet number:problem	!	!	!	!
(<112%3DD-LLL]	.	.	8fJ	.
112%3EE-	.	.	.	.
!	!	!	!	!LO:HP:b=2
112%3FF	.	.	.	<
112%3GG	.	.	.	.
112%3AAn	.	.	.	.
.	(>4b-'>	2.ryy	8d-L	.
112%3BB-	.	.	.	.
112%3C	.	.	.	.
112%3D-	.	.	.	.
112%3E-	.	.	.	.
112%3F	.	.	.	.
.	.	.	8fJ	.
112%3G	.	.	.	.
112%3An	.	.	.	.
112%3B-	.	.	.	[[
112%3cJJJ)	.	.	.	.
!!mixed beam:problem
!	!	!	!	!LO:HP:b=2
(>14d-L\	4b-'>	.	8d-L	>
14En\	.	.	.	.
.	.	.	8fJ	.
14F\	.	.	.	.
14c\	.	.	.	.
.	4b-'>)	.	8d-L	.
14B-\	.	.	.	]
14D-\	.	.	.	.
.	.	.	8fJ	.
14DD-J)/	.	.	.	.
!!LO:LB:g=original
=39	=39	=39	=39	=39
*^	*	*	*	*
!	!	!LO:TX:a:t=P:diminuendolike accent:problem	!	!	!
[4.EE-	2.ryy	2b-^>	4c/	8cL	pp
.	.	.	.	8e-J	.
.	.	.	4c/	8cL	.
!LO:TX:t=P:trzydziestodwójki oznaczone jak grupa niemiarowa, '12':problem	!	!	!	!	!
(<32EE-LLL]	.	.	.	8e-J	.
!	!	!	!	!	!LO:HP:b=2
32FF	.	.	.	.	<
32GG	.	.	.	.	.
32AA-	.	.	.	.	.
32BB-	.	(>4a-'>	2.ryy	8cL	.
32C	.	.	.	.	.
32D-	.	.	.	.	.
32E-	.	.	.	.	.
32F	.	.	.	8e-J	.
32G	.	.	.	.	.
32A-	.	.	.	.	.
32B-JJJ)	.	.	.	.	[
4ryy	8cL	4a-'>	.	8cL	.
.	16r	.	.	8e-J	.
.	16DnJk	.	.	.	.
!	!LO:TX:t=P:note-head-side tuplet number:problem	!	!	!	!
[<4E-	(>12E-L\	4a-'>)	.	8cL	.
.	12B-X	.	.	.	.
.	.	.	.	8e-J	.
.	12A-J)	.	.	.	.
*	*	*	*v	*v	*
*v	*v	*	*	*
=40	=40	=40	=40
4E-] [<4EE-	(>4a-'>	8d-L	ppp
.	.	8e-J	.
!LO:TX:b:Bi:t=legatissimo e smorz.:dur=13s:problem:text with extention lines	!	!	!
(>16EE-LL]	4g'>	8d-L	.
16FF	.	.	.
16GG	.	8e-J	.
16AA-JJ	.	.	.
16BB-LL\	4g'>)	8d-L	.
16C	.	.	.
16D-	.	8e-J	.
16DnJJ	.	.	.
!	!LO:TX:a:t=P:diminuendolike accent:problem	!	!LO:HP:b=2
16E-LL	2g^	8d-L	<
16En	.	.	.
16G	.	8e-J	.
16FJJ	.	.	[
!	!	!	!LO:HP:b=2
16E-XLL	.	8d-L	>
16D	.	.	.
16BB-	.	8e-J	.
16E-JJ)	.	.	]
*	*v	*v	*
=41	=41	=41
*^	*	*
4c>	4AA-\	4a-	pp
4AA-\	2.AAA-	4c<'> 4A-<'> 4E-<'>	.
4AA-\	.	4Bn<^^> 4A-< 4F< 4Dn<	.
4AA-\	.	4c<'> 4A-<'> 4E-<'>	.
4AA- 4AAA-\	4ryy	4c<'> 4A-<'> 4E-<'>	.
*v	*v	*	*
=42	=42	=42
*ped	*	*
4AA-:;< 4AAA-:	4a-:;> 4e-: 4c: 4A-<: 4E-<:	.
*Xped	*	*
4r	4r	.
4r	4r	.
4r	4r	.
4r	4r	.
==	==	==
*-	*-	*-
!!title: @{OTL}; @{OPS} @{ONM} publisher: @{PPR}
!!!RDF**kern: > = above
!!!RDF**kern: < = below
!!!RDF**dynam: > = "dim.", fontstyle= "bold-italic"
!!!RDF**dynam: < = "cresc.", fontstyle= "bold-italic"
!!!RDF**kern: N = linked
!!!RDF**kern: i=editorial accidental, bracket
!!!ENC: Wojciech Jakubiak-Danek
!!!END: 2019-09-05
!!!EED: Zofia Niedbalska
!!!EST: revision finished 2019-10-21
!!!rism-genre: Sonata
!!!rism-key: C minor
!!!rism-opus: op.  4
!!!rism-title: Sonata in C minor op.  4
!!!rism-permalink: https://opac.rism.info/search?id=1001009310&View=rism
